TileServer und Tiles/svg/9/30_13.svg

<?xml version='1.0' encoding='UTF-8' standalone='no'?>
<svg xmlns="http://www.w3.org/2000/svg" width="497pt" viewBox="0 0 497 279" xmlns:xlink="http://www.w3.org/1999/xlink" height="279pt">
 <defs style="stroke:none;" overflow="visible">
  <path id="glyph0-4" d="M 4.9375 0 L 4.046875 0 L 4.046875 -4.625 L 2.453125 -4.625 C 2.367188 -3.5 2.25 -2.59375 2.09375 -1.90625 C 1.945312 -1.21875 1.742188 -0.71875 1.484375 -0.40625 C 1.234375 -0.09375 0.914062 0.0625 0.53125 0.0625 C 0.445312 0.0625 0.363281 0.0546875 0.28125 0.046875 C 0.195312 0.046875 0.125 0.03125 0.0625 0 L 0.0625 -0.65625 C 0.101562 -0.644531 0.144531 -0.632812 0.1875 -0.625 C 0.238281 -0.625 0.289062 -0.625 0.34375 -0.625 C 0.695312 -0.625 0.984375 -1.003906 1.203125 -1.765625 C 1.421875 -2.535156 1.585938 -3.734375 1.703125 -5.359375 L 4.9375 -5.359375 Z M 4.9375 0 "/>
  <path id="glyph0-3" d="M 2.265625 -5.453125 C 2.878906 -5.453125 3.363281 -5.332031 3.71875 -5.09375 C 4.082031 -4.851562 4.265625 -4.503906 4.265625 -4.046875 C 4.265625 -3.722656 4.175781 -3.460938 4 -3.265625 C 3.820312 -3.078125 3.578125 -2.941406 3.265625 -2.859375 L 3.265625 -2.8125 C 3.472656 -2.757812 3.664062 -2.675781 3.84375 -2.5625 C 4.03125 -2.457031 4.175781 -2.316406 4.28125 -2.140625 C 4.394531 -1.972656 4.453125 -1.753906 4.453125 -1.484375 C 4.453125 -1.035156 4.265625 -0.660156 3.890625 -0.359375 C 3.523438 -0.0546875 2.945312 0.09375 2.15625 0.09375 C 1.769531 0.09375 1.421875 0.0625 1.109375 0 C 0.796875 -0.0625 0.535156 -0.144531 0.328125 -0.25 L 0.328125 -1.046875 C 0.554688 -0.929688 0.820312 -0.832031 1.125 -0.75 C 1.4375 -0.664062 1.78125 -0.625 2.15625 -0.625 C 2.550781 -0.625 2.882812 -0.691406 3.15625 -0.828125 C 3.4375 -0.960938 3.578125 -1.195312 3.578125 -1.53125 C 3.578125 -2.132812 3.066406 -2.4375 2.046875 -2.4375 L 1.328125 -2.4375 L 1.328125 -3.15625 L 1.90625 -3.15625 C 2.363281 -3.15625 2.734375 -3.210938 3.015625 -3.328125 C 3.296875 -3.453125 3.4375 -3.664062 3.4375 -3.96875 C 3.4375 -4.21875 3.328125 -4.40625 3.109375 -4.53125 C 2.898438 -4.664062 2.597656 -4.734375 2.203125 -4.734375 C 1.910156 -4.734375 1.648438 -4.703125 1.421875 -4.640625 C 1.203125 -4.585938 0.960938 -4.503906 0.703125 -4.390625 L 0.390625 -5.09375 C 0.953125 -5.332031 1.578125 -5.453125 2.265625 -5.453125 Z M 2.265625 -5.453125 "/>
  <path id="glyph0-2" d="M 0.84375 0 L 0.84375 -5.359375 L 1.734375 -5.359375 L 1.734375 -3.15625 L 3.125 -3.15625 C 3.8125 -3.15625 4.320312 -3.03125 4.65625 -2.78125 C 4.988281 -2.53125 5.15625 -2.148438 5.15625 -1.640625 C 5.15625 -1.140625 4.992188 -0.738281 4.671875 -0.4375 C 4.347656 -0.144531 3.816406 0 3.078125 0 Z M 6.046875 0 L 6.046875 -5.359375 L 6.9375 -5.359375 L 6.9375 0 Z M 1.734375 -0.703125 L 3 -0.703125 C 3.375 -0.703125 3.679688 -0.765625 3.921875 -0.890625 C 4.171875 -1.023438 4.296875 -1.257812 4.296875 -1.59375 C 4.296875 -1.914062 4.179688 -2.132812 3.953125 -2.25 C 3.734375 -2.375 3.421875 -2.4375 3.015625 -2.4375 L 1.734375 -2.4375 Z M 1.734375 -0.703125 "/>
  <path id="glyph0-1" d="M 6.1875 0 L 5.09375 0 L 1.875 -3.625 L 1.875 0 L 0.96875 0 L 0.96875 -7.140625 L 1.875 -7.140625 L 1.875 -3.6875 L 5.015625 -7.140625 L 6.046875 -7.140625 L 2.9375 -3.671875 Z M 6.1875 0 "/>
  <path id="glyph0-0" d="M 0.9375 0 L 0.9375 -7.140625 L 5.046875 -7.140625 L 5.046875 0 Z M 1.453125 -0.515625 L 4.546875 -0.515625 L 4.546875 -6.625 L 1.453125 -6.625 Z M 1.453125 -0.515625 "/>
 </defs>
 <image width="497" xlink:href="svg/9/30_13.jpg" height="279"/>
 <g>
  <path d="M 109.574219 250.175781 L 108.480469 250.175781 L 105.261719 246.550781 L 105.261719 250.175781 L 104.355469 250.175781 L 104.355469 243.035156 L 105.261719 243.035156 L 105.261719 246.488281 L 108.402344 243.035156 L 109.433594 243.035156 L 106.324219 246.503906 Z M 109.574219 250.175781 " transform=" rotate(  340 119.795 247.177) " style="fill:none;stroke-width:3;stroke-linecap:butt;stroke-linejoin:round;stroke:rgb(100%,100%,100%);stroke-opacity:0.6;stroke-miterlimit:10;"/>
  <path d="M 110.410156 250.175781 L 110.410156 244.816406 L 111.300781 244.816406 L 111.300781 247.019531 L 112.691406 247.019531 C 113.378906 247.019531 113.886719 247.144531 114.222656 247.394531 C 114.554688 247.644531 114.722656 248.027344 114.722656 248.535156 C 114.722656 249.035156 114.558594 249.4375 114.238281 249.738281 C 113.914062 250.03125 113.382812 250.175781 112.644531 250.175781 Z M 115.613281 250.175781 L 115.613281 244.816406 L 116.503906 244.816406 L 116.503906 250.175781 Z M 111.300781 249.472656 L 112.566406 249.472656 C 112.941406 249.472656 113.246094 249.410156 113.488281 249.285156 C 113.738281 249.152344 113.863281 248.917969 113.863281 248.582031 C 113.863281 248.261719 113.746094 248.042969 113.519531 247.925781 C 113.300781 247.800781 112.988281 247.738281 112.582031 247.738281 L 111.300781 247.738281 Z M 111.300781 249.472656 " transform=" rotate(  340 119.795 247.177) " style="fill:none;stroke-width:3;stroke-linecap:butt;stroke-linejoin:round;stroke:rgb(100%,100%,100%);stroke-opacity:0.6;stroke-miterlimit:10;"/>
  <path d="M 119.609375 244.722656 C 120.222656 244.722656 120.707031 244.84375 121.0625 245.082031 C 121.425781 245.324219 121.609375 245.671875 121.609375 246.128906 C 121.609375 246.453125 121.519531 246.714844 121.34375 246.910156 C 121.164062 247.097656 120.921875 247.234375 120.609375 247.316406 L 120.609375 247.363281 C 120.816406 247.417969 121.007812 247.5 121.1875 247.613281 C 121.375 247.71875 121.519531 247.859375 121.625 248.035156 C 121.738281 248.203125 121.796875 248.421875 121.796875 248.691406 C 121.796875 249.140625 121.609375 249.515625 121.234375 249.816406 C 120.867188 250.121094 120.289062 250.269531 119.5 250.269531 C 119.113281 250.269531 118.765625 250.238281 118.453125 250.175781 C 118.140625 250.113281 117.878906 250.03125 117.671875 249.925781 L 117.671875 249.128906 C 117.898438 249.246094 118.164062 249.34375 118.46875 249.425781 C 118.78125 249.511719 119.125 249.550781 119.5 249.550781 C 119.894531 249.550781 120.226562 249.484375 120.5 249.347656 C 120.78125 249.214844 120.921875 248.980469 120.921875 248.644531 C 120.921875 248.042969 120.410156 247.738281 119.390625 247.738281 L 118.671875 247.738281 L 118.671875 247.019531 L 119.25 247.019531 C 119.707031 247.019531 120.078125 246.964844 120.359375 246.847656 C 120.640625 246.722656 120.78125 246.511719 120.78125 246.207031 C 120.78125 245.957031 120.671875 245.769531 120.453125 245.644531 C 120.242188 245.511719 119.941406 245.441406 119.546875 245.441406 C 119.253906 245.441406 118.992188 245.472656 118.765625 245.535156 C 118.546875 245.589844 118.304688 245.671875 118.046875 245.785156 L 117.734375 245.082031 C 118.296875 244.84375 118.921875 244.722656 119.609375 244.722656 Z M 119.609375 244.722656 " transform=" rotate(  340 119.795 247.177) " style="fill:none;stroke-width:3;stroke-linecap:butt;stroke-linejoin:round;stroke:rgb(100%,100%,100%);stroke-opacity:0.6;stroke-miterlimit:10;"/>
  <path d="M 123.089844 250.175781 L 123.089844 244.816406 L 123.980469 244.816406 L 123.980469 247.019531 L 125.371094 247.019531 C 126.058594 247.019531 126.566406 247.144531 126.902344 247.394531 C 127.234375 247.644531 127.402344 248.027344 127.402344 248.535156 C 127.402344 249.035156 127.238281 249.4375 126.917969 249.738281 C 126.59375 250.03125 126.0625 250.175781 125.324219 250.175781 Z M 128.292969 250.175781 L 128.292969 244.816406 L 129.183594 244.816406 L 129.183594 250.175781 Z M 123.980469 249.472656 L 125.246094 249.472656 C 125.621094 249.472656 125.925781 249.410156 126.167969 249.285156 C 126.417969 249.152344 126.542969 248.917969 126.542969 248.582031 C 126.542969 248.261719 126.425781 248.042969 126.199219 247.925781 C 125.980469 247.800781 125.667969 247.738281 125.261719 247.738281 L 123.980469 247.738281 Z M 123.980469 249.472656 " transform=" rotate(  340 119.795 247.177) " style="fill:none;stroke-width:3;stroke-linecap:butt;stroke-linejoin:round;stroke:rgb(100%,100%,100%);stroke-opacity:0.6;stroke-miterlimit:10;"/>
  <path d="M 134.960938 250.175781 L 134.070312 250.175781 L 134.070312 245.550781 L 132.476562 245.550781 C 132.390625 246.675781 132.273438 247.582031 132.117188 248.269531 C 131.96875 248.957031 131.765625 249.457031 131.507812 249.769531 C 131.257812 250.082031 130.9375 250.238281 130.554688 250.238281 C 130.46875 250.238281 130.386719 250.230469 130.304688 250.222656 C 130.21875 250.222656 130.148438 250.207031 130.085938 250.175781 L 130.085938 249.519531 C 130.125 249.53125 130.167969 249.542969 130.210938 249.550781 C 130.261719 249.550781 130.3125 249.550781 130.367188 249.550781 C 130.71875 249.550781 131.007812 249.171875 131.226562 248.410156 C 131.445312 247.640625 131.609375 246.441406 131.726562 244.816406 L 134.960938 244.816406 Z M 134.960938 250.175781 " transform=" rotate(  340 119.795 247.177) " style="fill:none;stroke-width:3;stroke-linecap:butt;stroke-linejoin:round;stroke:rgb(100%,100%,100%);stroke-opacity:0.6;stroke-miterlimit:10;"/>
  <g transform=" rotate(  340 119.795 247.177) " style="fill:rgb(13.333333%,13.333333%,13.333333%);fill-opacity:1;">
   <use xlink:href="#glyph0-1" y="250.177415" x="103.385376"/>
   <use xlink:href="#glyph0-2" y="250.177415" x="109.565376"/>
   <use xlink:href="#glyph0-3" y="250.177415" x="117.345376"/>
   <use xlink:href="#glyph0-2" y="250.177415" x="122.245376"/>
   <use xlink:href="#glyph0-4" y="250.177415" x="130.025376"/>
  </g>
 </g>
</svg>

<svg xmlns="http://www.w3.org/2000/svg" xmlns:xlink="http://www.w3.org/1999/xlink" viewBox="0 0 497 279"> <defs overflow="visible" style="stroke:none">  <path id="d" d="M5 0H4v-4.6H2.5L2-2 1.5-.4c-.3.3-.6.4-1 .4H0v-.7h.4c.3.1.6-.3.8-.9.2-1 .4-2.2.5-3.9h3.2Zm0 0"/>  <path id="c" d="M2.3-5.5c.6 0 1 .2 1.4.5.4.1.6.5.6 1s-.1.6-.3.8c-.2.2-.4.3-.7.3a2 2 0 0 1 .5.4l.5.5.2.5c0 .5-.2.8-.6 1.1-.4.4-1 .5-1.7.5l-1-.1a3 3 0 0 1-1-.3V-1a4 4 0 0 0 2 .4c.4 0 .7 0 1-.2.2-.2.4-.4.4-.7 0-.6-.6-1-1.6-1h-.7v-.6H2l1-.2c.3-.2.4-.4.4-.7 0-.2 0-.4-.3-.5-.1-.2-.5-.2-.9-.2a3 3 0 0 0-.8 0l-.7.4L.4-5a4.8 4.8 0 0 1 1.9-.5Zm0 0"/>  <path id="b" d="M.8 0v-5.4h1v2.2H3c.8 0 1.3.2 1.7.4.3.3.5.8.5 1.2S5-.7 4.7-.4c-.4.3-.9.4-1.7.4ZM6 0v-5.4h1V0ZM1.7-.7H3c.4 0 .7 0 1-.2.1-.1.2-.4.2-.7.1-.3 0-.4-.2-.6-.3-.3-.6-.3-1-.3H1.7Zm0 0"/>  <path id="a" d="M6.2 0H5L1.9-3.6V0h-1v-7.1H2v3.4L5-7h1L3-3.7Zm0 0"/>  <path d="M1 0v-7.1h4V0Zm.4-.5h3.1v-6.1h-3Zm.1 0"/> </defs> <image xlink:href="svg/9/30_13.jpg" width="497" height="279"/> <path d="M109.6 250.2h-1.1l-3.2-3.6v3.6h-1V243h1.1v3.5l3-3.5h1l-3 3.5Zm.8 0v-5.4h.9v2.2h1.4c.7 0 1.2.1 1.5.4.4.2.5.6.5 1.1 0 .5-.1 1-.5 1.2-.2.3-.8.5-1.6.5Zm5.2 0v-5.4h.9v5.4Zm-4.3-.7h1.3c.3 0 .6 0 .9-.2.2-.1.4-.4.4-.7 0-.3-.2-.6-.4-.7l-1-.2h-1.1Zm8.3-4.8c.6 0 1.1.1 1.5.4.3.2.5.6.5.9s0 .7-.3 1c-.1.1-.3.2-.7.3a2 2 0 0 1 .6.4l.4.3.2.7c0 .3-.2.8-.6 1.1-.2.3-1 .5-1.7.5l-1-.1a3 3 0 0 1-.8-.3v-.8a4 4 0 0 0 1.8.5c.4 0 .7-.1 1-.3.3 0 .4-.3.4-.7.1-.6-.5-.9-1.5-.9h-.7v-.7h.5c.6 0 1 0 1.3-.2.1 0 .3-.3.3-.6l-.3-.6-1-.2a3 3 0 0 0-.7.1c-.3 0-.5.2-.8.3l-.3-.8a4.8 4.8 0 0 1 2-.3Zm3.4 5.5v-5.4h1v2.2h1.4c.6 0 1.2.1 1.5.4.3.2.5.6.5 1.1 0 .5-.2 1-.5 1.2-.3.3-.8.5-1.6.5Zm5.4 0v-5.4h.8v5.4Zm-4.4-.7h1.2c.4 0 .8 0 1-.2.2-.1.3-.4.3-.7 0-.3 0-.6-.3-.7l-1-.2H124Zm11 .7h-1v-4.6h-1.4l-.6 2.7c0 .7-.2 1.2-.5 1.5-.2.2-.5.4-1 .4h-.3v-.7h.2c.3.1.6-.2.8-.9.2-1.1.4-2.2.5-3.9h3.3Zm0 0" style="fill:none;stroke-width:3;stroke-linecap:butt;stroke-linejoin:round;stroke:#fff;stroke-opacity:.6;stroke-miterlimit:10" transform=" rotate(  340 119.795 247.177) "/> <g style="fill:#222;fill-opacity:1" transform=" rotate(  340 119.795 247.177) ">  <use xlink:href="#a" x="103.4" y="250.2"/>  <use xlink:href="#b" x="109.6" y="250.2"/>  <use xlink:href="#c" x="117.3" y="250.2"/>  <use xlink:href="#b" x="122.2" y="250.2"/>  <use xlink:href="#d" x="130" y="250.2"/> </g></svg>
